X: 34678
T: Road To Cree, The
R: reel
M: 4/4
K: Bminor
d2cB AFEF|A2BA eAce|decB AF~F2|afec cBBc|
decB AFEF|ABBA eAce|decB AF~F2|afec cBBc||
dcde ~f3e|f2bf afec|dcde ~f3e|afec cBBc|
dcde ~f3e|faba afec|decB AFEF|ABBA ABBc||

